X: 3311
T: Bell, The
R: reel
M: 4/4
K: Adorian
E2 AG EGAE|E2 AB cd e2|A2 AG EGAG|Addc A2 G^F|
E2 AG (3EFG AG|(3EFG AB cd eG|A2 AG EGAG|D2 dc A2 e=f|
|:edcd ed d2|edcd efgf|
[1 edcd ed d2|eaag e2 dg:|2 ea a2 eg g2|eaag e2 dA||

